!!! OTL: Literature22
!!! Chapter: 5
!!! Section: I
!!! Page: 349
!!! Mode: 
!!! Encoder: DJB
**kern
*staff1
*I"Piano
=1-
*clefF4
*k[f#c#]
*D:
*M4/4
4F#\
4F#\
4G\
4A\
=2
4A\
4G\
4F#\
4E\
=3
4D\
4D\
4E\
4F#\
=4
4.F#\
8E\
2E\
=5
4F#\
4F#\
4G\
4A\
=6
4A\
4G\
4F#\
4E\
=7
4D\
4D\
4E\
4F#\
=8
4.E\
8D\
2D\
=9
4E\
4E\
4F#\
4D\
=10
!!linebreak:original
4E\
8F#\L
8G\J
4F#\
4D\
=11
4E\
8F#\L
8G\J
4F#\
4E\
=12
4D\
4E\
4AA/
[4F#\
=13
4F#\]
4F#\
4G\
4A\
=14
4A\
4G\
4F#\
8G\L
8E\J
=15
4D\
4D\
4E\
4F#\
=16
4.E\
8D\
2D\
==
*-
